X: 40122
T: Tie The Bonnet
R: reel
M: 4/4
K: Amixolydian
|:A^GA=g fdec|A^GA=c B=GdB|A^GA=g fdef|gfgd BGdB:|
a^gaf =gfed|c/B/A eA fAe^g|a^gaf =gfef|gfgd B/A/G dB|
eaaf g2 f/e/d|cAAe c2 e/f/^g|afge f2 d/e/f|g2 gd BGdG||

